src/22/actions/zoom-previous.svg

<svg xmlns="http://www.w3.org/2000/svg" viewBox="0 0 22 22">
  <defs id="defs3051">
    <style type="text/css" id="current-color-scheme">
      .ColorScheme-Text {
        color:#5d656b;
      }
      </style>
  </defs>
 <path 
     style="fill:currentColor;fill-opacity:1;stroke:none" 
     d="M 3 3 L 3 4 L 3 6 L 4 6 L 4 4 L 6 4 L 6 3 L 4 3 L 3 3 z M 16 3 L 16 4 L 18 4 L 18 6 L 19 6 L 19 4 L 19 3 L 18 3 L 16 3 z M 12.285156 7.3242188 L 10.482422 9.125 L 8.6074219 11 L 10.482422 12.875 L 12.285156 14.675781 L 12.992188 13.96875 L 11.189453 12.167969 L 10.021484 11 L 11.189453 9.8320312 L 12.992188 8.03125 L 12.285156 7.3242188 z M 3 16 L 3 18 L 3 19 L 6 19 L 6 18 L 4 18 L 4 16 L 3 16 z M 18 16 L 18 18 L 16 18 L 16 19 L 19 19 L 19 16 L 18 16 z "
	 class="ColorScheme-Text"
     />
</svg>

<svg xmlns="http://www.w3.org/2000/svg" viewBox="0 0 22 22"><path d="M3 3v3h1V4h2V3H3zm13 0v1h2v2h1V3h-3zm-3.715 4.324l-1.803 1.801L8.607 11l1.875 1.875 1.803 1.8.707-.706-1.803-1.801L10.021 11l1.168-1.168 1.803-1.8-.707-.708zM3 16v3h3v-1H4v-2H3zm15 0v2h-2v1h3v-3h-1z" fill="currentColor" color="#5d656b"/></svg>
